akande/images/github/github-akande.svg

<svg height="1600" viewBox="0 0 3000 1600" width="3000" xmlns="http://www.w3.org/2000/svg" xmlns:xlink="http://www.w3.org/1999/xlink"><linearGradient id="a" x1="50%" x2="50%" y1="0%" y2="100%"><stop offset="0" stop-color="#fff"/><stop offset="1" stop-color="#fff"/></linearGradient><mask id="b" fill="#fff"><path d="m0 0h800v800h-800z" fill="#fff" fill-rule="evenodd"/></mask><g fill="none" fill-rule="evenodd"><path d="m0 0h3000v1600h-3000z" fill="url(#a)"/><g transform="translate(976 399)"><text fill="#000" font-family="SFCompactDisplay-Medium, SF Compact Display" font-size="91" font-weight="400" letter-spacing="-.684"><tspan x="22" y="389">Advanced AI Voice Assistant for All</tspan> <tspan font-family="SFCompactDisplay-Thin, SF Compact Display" font-size="88" font-weight="300" letter-spacing="-.662" x="22" y="498">An advanced voice assistant using OpenAI's GPT </tspan><tspan font-family="SFCompactDisplay-Thin, SF Compact Display" font-size="88" font-weight="300" letter-spacing="-.662" x="22" y="603">for natural interactions, PDF summaries, &amp; efficient </tspan><tspan font-family="SFCompactDisplay-Thin, SF Compact Display" font-size="88" font-weight="300" letter-spacing="-.662" x="22" y="708">caching for both personal &amp; executive tasks.</tspan></text><text fill="#f00" fill-rule="nonzero" font-family="NotoSans-Regular, Noto Sans" font-size="175"><tspan x="0" y="187">Àkàndé Voice Assistant</tspan></text></g><g fill-rule="nonzero" transform="translate(141 400)"><path d="m148.51127 617.488143c28.814258 0 56.606546-.917176 84.29455.365746 15.105825.699603 22.648307-3.661202 29.595432-17.707678 48.294266-97.646371 97.841822-194.68692 147.010168-291.9094 2.218377-4.387063 4.963855-8.429014 3.054533-13.855166-11.664494-33.157116-22.003648-66.770004-35.202047-99.39632-1.791765-4.430202-3.814851-8.749742-8.655465-13.24559-73.488966 145.491423-146.433767 289.909995-220.097171 435.748408m157.783519-511.755814c3.246035 4.814703 9.294432 4.512729 13.533998 7.457444 36.387078 25.288911 66.342758 56.075249 81.249496 98.381612 26.047922 73.916095 51.261584 148.122912 76.706563 222.245324 20.187234 58.80802 40.232265 117.66293 60.207142 176.542223 1.260873 3.717468 1.994645 7.071068 6.950916 7.061728 30.791838-.04693 61.585573-.022547 92.859006-.022547-.866494-3.044123-1.365154-5.148562-2.059109-7.18923-43.569313-127.834389-87.038135-255.704412-130.827389-383.465653-9.67933-28.241128-17.219918-57.307527-29.792619-84.457048-11.537459-24.919415-30.791838-39.30913-60.184391-38.639536-32.828195.746494-65.68483.236327-98.530088.309476-3.42616.005627-6.971773-.410759-10.113525 1.776207m493.710536 295.643749c.911794 183.894633-129.071852 347.453852-312.359128 387.98776-137.548883 30.420592-259.269547-4.972254-362.746427-99.002442-70.9785983-64.498634-110.004977-145.874048-122.02782441-240.179951-5.98582704-46.959761-2.16528809-93.306197 7.29030881-139.581361 10.3315716-50.555316 31.9427393-96.093361 60.2469604-138.786102 15.752376-23.764036 35.6059062-44.225116 56.4662382-63.675239 63.428531-59.1437551 138.398313-95.6000758 224.846776-105.1900932 137.711943-15.2750052 254.083853 28.8507037 346.523832 131.1317182 55.038513 60.897455 87.455263 132.887294 98.657123 214.001997.255966 1.854985.326119 3.73435.549853 5.594959 1.913113 15.845192 2.402295 31.761658 2.552288 47.698754" fill="#2a2828" mask="url(#b)"/><g fill="#f2f2f2" transform="translate(148.511 103.624)"><path d="m157.784277 2.10806296c3.139858-2.18884219 6.687365-1.77058008 10.113526-1.77808262 32.845259-.07127324 65.701894.43889395 98.530087-.30760078 29.392553-.66959433 48.646932 13.72012074 60.184391 38.63953614 12.570807 27.1495213 20.113289 56.2159215 29.792621 84.4570483 43.789254 127.76124 87.258074 255.629389 130.825492 383.465652.69585 2.038793 1.19451 4.14511 2.061004 7.189231-31.27533 0-62.067166-.024383-92.8609.022547-4.954377.00934-5.688147-3.34426-6.94902-7.061729-19.974877-58.879293-40.021804-117.734203-60.209039-176.542222-25.44498-74.124289-50.656744-148.329229-76.704668-222.245325-14.908633-42.3063621-44.862418-73.0926998-81.249496-98.38161129-4.239566-2.94659062-10.287963-2.64274101-13.533998-7.45744375"/><path d="m0 513.863689c73.6634041-145.838412 146.608205-290.256985 220.097172-435.7484079 4.840613 4.4958481 6.863699 8.8153885 8.655465 13.2455903 13.198398 32.6263156 23.537552 66.2392036 35.202046 99.3963196 1.909323 5.426152-.836156 9.468103-3.054533 13.855166-49.168346 97.22248-98.715902 194.263029-147.010168 291.9094-6.947125 14.046477-14.4896072 18.407281-29.5954314 17.707678-27.6880039-1.282922-55.4802924-.365746-84.2945506-.365746"/></g></g></g></svg>

<svg xmlns="http://www.w3.org/2000/svg" xmlns:xlink="http://www.w3.org/1999/xlink" width="3000" height="1600" viewBox="0 0 3000 1600"><defs><linearGradient id="a" x1="50%" x2="50%" y1="0%" y2="100%"><stop offset="0%" stop-color="#FFF"/><stop offset="100%" stop-color="#FFF"/></linearGradient><polygon id="b" points="0 0 800 0 800 800 0 800"/></defs><g fill="none" fill-rule="evenodd"><rect width="3000" height="1600" fill="url(#a)"/><g transform="translate(141 400)"><g transform="translate(857 22)"><text fill="#000" font-family="SFCompactDisplay-Medium, SF Compact Display" font-size="91" font-weight="400" letter-spacing="-.684">
                        <tspan x="0" y="366">Advanced AI Voice Assistant for All</tspan>
                        
                        <tspan x="0" y="475" font-family="SFCompactDisplay-Thin, SF Compact Display" font-size="88" font-weight="300" letter-spacing="-.662">An advanced voice assistant using OpenAI&apos;s GPT </tspan>
                        <tspan x="0" y="580" font-family="SFCompactDisplay-Thin, SF Compact Display" font-size="88" font-weight="300" letter-spacing="-.662">for natural interactions, PDF summaries, &amp; efficient </tspan>
                        <tspan x="0" y="685" font-family="SFCompactDisplay-Thin, SF Compact Display" font-size="88" font-weight="300" letter-spacing="-.662">caching for both personal &amp; executive tasks.</tspan>
                    </text><text fill="#2A2828" fill-rule="nonzero" font-family="Heorot" font-size="333">
                        <tspan x="0" y="279">Àkàndé</tspan>
                    </text></g><mask id="c" fill="#fff"><use xlink:href="#b"/></mask><path fill="#2A2828" fill-rule="nonzero" d="M148.51127,617.488143 C177.325528,617.488143 205.117816,616.570967 232.80582,617.853889 C247.911645,618.553492 255.454127,614.192687 262.401252,600.146211 C310.695518,502.49984 360.243074,405.459291 409.41142,308.236811 C411.629797,303.849748 414.375275,299.807797 412.465953,294.381645 C400.801459,261.224529 390.462305,227.611641 377.263906,194.985325 C375.472141,190.555123 373.449055,186.235583 368.608441,181.739735 C295.119475,327.231158 222.174674,471.64973 148.51127,617.488143 M306.294789,105.732329 C309.540824,110.547032 315.589221,110.245058 319.828787,113.189773 C356.215865,138.478684 386.171545,169.265022 401.078283,211.571385 C427.126205,285.48748 452.339867,359.694297 477.784846,433.816709 C497.97208,492.624729 518.017111,551.479639 537.991988,610.358932 C539.252861,614.0764 539.986633,617.43 544.942904,617.42066 C575.734742,617.37373 606.528477,617.398113 637.80191,617.398113 C636.935416,614.35399 636.436756,612.249551 635.742801,610.208883 C592.173488,482.374494 548.704666,354.504471 504.915412,226.74323 C495.236082,198.502102 487.695494,169.435703 475.122793,142.286182 C463.585334,117.366767 444.330955,102.977052 414.938402,103.646646 C382.110207,104.39314 349.253572,103.882973 316.408314,103.956122 C312.982154,103.961749 309.436541,103.545363 306.294789,105.732329 M800.005325,401.376078 C800.917119,585.270711 670.933473,748.82993 487.646197,789.363838 C350.097314,819.78443 228.37665,784.391584 124.89977,690.361396 C53.9211717,625.862762 14.894793,544.487348 2.87194559,450.181445 C-3.11388145,403.221684 0.706657502,356.875248 10.1622544,310.600084 C20.493826,260.044768 42.1049937,214.506723 70.4092148,171.813982 C86.1615908,148.049946 106.015121,127.588866 126.875453,108.138743 C190.303984,48.9949879 265.273766,12.5386672 351.722229,2.9486498 C489.434172,-12.3263554 605.806082,31.7993535 698.246061,134.080368 C753.284574,194.977823 785.701324,266.967662 796.903184,348.082365 C797.15915,349.93735 797.229303,351.816715 797.453037,353.677324 C799.36615,369.522516 799.855332,385.438982 800.005325,401.376078" mask="url(#c)"/><g fill="#F2F2F2" fill-rule="nonzero" transform="translate(148.511 103.624)"><path d="M157.784277,2.10806296 C160.924135,-0.0807792264 164.471642,0.337482883 167.897803,0.329980344 C200.743062,0.258707102 233.599697,0.768874289 266.42789,0.0223795626 C295.820443,-0.647214773 315.074822,13.7425003 326.612281,38.6619157 C339.183088,65.811437 346.72557,94.8778372 356.404902,123.118964 C400.194156,250.880204 443.662976,378.748353 487.230394,506.584616 C487.926244,508.623409 488.424904,510.729726 489.291398,513.773847 C458.016068,513.773847 427.224232,513.749464 396.430498,513.796394 C391.476121,513.805734 390.742351,510.452134 389.481478,506.734665 C369.506601,447.855372 349.459674,389.000462 329.272439,330.192443 C303.827459,256.068154 278.615695,181.863214 252.567771,107.947118 C237.659138,65.6407559 207.705353,34.8544182 171.318275,9.56550671 C167.078709,6.61891609 161.030312,6.9227657 157.784277,2.10806296"/><path d="M2.22044605e-14,513.863689 C73.6634041,368.025277 146.608205,223.606704 220.097172,78.1152811 C224.937785,82.6111292 226.960871,86.9306696 228.752637,91.3608714 C241.951035,123.987187 252.290189,157.600075 263.954683,190.757191 C265.864006,196.183343 263.118527,200.225294 260.90015,204.612357 C211.731804,301.834837 162.184248,398.875386 113.889982,496.521757 C106.942857,510.568234 99.4003748,514.929038 84.2945506,514.229435 C56.6065467,512.946513 28.8142582,513.863689 2.22044605e-14,513.863689"/></g></g></g></svg>
